germany/municipalities/10044113.svg

<?xml version="1.0" encoding="UTF-8" standalone="no"?>
<!-- Created with Inkscape (http://www.inkscape.org/) -->

<svg
   xmlns:dc="http://purl.org/dc/elements/1.1/"
   xmlns:cc="http://creativecommons.org/ns#"
   xmlns:rdf="http://www.w3.org/1999/02/22-rdf-syntax-ns#"
   xmlns:svg="http://www.w3.org/2000/svg"
   xmlns="http://www.w3.org/2000/svg"
   xmlns:sodipodi="http://sodipodi.sourceforge.net/DTD/sodipodi-0.dtd"
   xmlns:inkscape="http://www.inkscape.org/namespaces/inkscape"
   width="197.93207mm"
   height="209.34358mm"
   viewBox="0 0 701.3341 741.76859"
   id="svg4175"
   version="1.1"
   inkscape:version="0.91 r13725"
   sodipodi:docname="DEU Nalbach COA.svg">
  <defs
     id="defs4177">
    <inkscape:path-effect
       effect="spiro"
       id="path-effect5020"
       is_visible="true" />
  </defs>
  <sodipodi:namedview
     id="base"
     pagecolor="#ffffff"
     bordercolor="#666666"
     borderopacity="1.0"
     inkscape:pageopacity="0.0"
     inkscape:pageshadow="2"
     inkscape:zoom="0.72798985"
     inkscape:cx="350.66704"
     inkscape:cy="370.88431"
     inkscape:document-units="px"
     inkscape:current-layer="layer1"
     showgrid="false"
     inkscape:window-width="1366"
     inkscape:window-height="745"
     inkscape:window-x="-8"
     inkscape:window-y="-8"
     inkscape:window-maximized="1"
     fit-margin-top="0"
     fit-margin-left="0"
     fit-margin-right="0"
     fit-margin-bottom="0"
     inkscape:snap-midpoints="true"
     inkscape:snap-smooth-nodes="true"
     inkscape:object-nodes="true"
     inkscape:snap-nodes="true" />
  <metadata
     id="metadata4180">
    <rdf:RDF>
      <cc:Work
         rdf:about="">
        <dc:format>image/svg+xml</dc:format>
        <dc:type
           rdf:resource="http://purl.org/dc/dcmitype/StillImage" />
        <dc:title></dc:title>
      </cc:Work>
    </rdf:RDF>
  </metadata>
  <g
     inkscape:label="Ebene 1"
     inkscape:groupmode="layer"
     id="layer1"
     transform="translate(-21.732285,-32.906498)">
    <path
       style="fill:#ff0000;fill-opacity:1;fill-rule:evenodd;stroke:none;stroke-width:11;stroke-opacity:1"
       inkscape:connector-curvature="0"
       d="M 27.412,38.406499 40.81,455.03091 c 7.415,175.24977 153.91979,314.04607 331.58925,314.14417 177.50971,-0.2149 324.0694,-139.0612 331.58941,-314.14417 l 13.398,-416.624411 -344.97941,0 z"
       id="path10563-0-7" />
    <path
       style="opacity:1;fill:#ffffff;fill-opacity:1;fill-rule:nonzero;stroke:#000000;stroke-width:8;stroke-linecap:round;stroke-linejoin:round;stroke-miterlimit:4;stroke-dasharray:none;stroke-dashoffset:0;stroke-opacity:1"
       d="M 350.66602 35.345703 A 41.842117 41.842117 0 0 0 308.82422 77.1875 A 41.842117 41.842117 0 0 0 308.82617 77.259766 A 41.842117 41.842117 0 0 0 306.82422 77.1875 A 41.842117 41.842117 0 0 0 264.98242 119.0293 A 41.842117 41.842117 0 0 0 306.82422 160.87305 A 41.842117 41.842117 0 0 0 308.47461 160.79102 L 308.47461 250.32227 L 201.66016 250.32227 A 41.842117 41.842117 0 0 0 201.71875 248.66992 A 41.842117 41.842117 0 0 0 159.875 206.82812 A 41.842117 41.842117 0 0 0 118.0332 248.66992 A 41.842117 41.842117 0 0 0 118.13281 250.67578 A 41.842117 41.842117 0 0 0 118.0332 250.66992 A 41.842117 41.842117 0 0 0 76.191406 292.51172 A 41.842117 41.842117 0 0 0 118.0332 334.35352 A 41.842117 41.842117 0 0 0 118.10547 334.35156 A 41.842117 41.842117 0 0 0 118.0332 336.35352 A 41.842117 41.842117 0 0 0 159.875 378.19531 A 41.842117 41.842117 0 0 0 201.71875 336.35352 A 41.842117 41.842117 0 0 0 201.63672 334.70312 L 308.47656 334.70312 L 308.47656 556.31836 L 392.85742 556.31836 L 392.85742 334.70312 L 499.69727 334.70312 A 41.842117 41.842117 0 0 0 499.61523 336.35352 A 41.842117 41.842117 0 0 0 541.45898 378.19531 A 41.842117 41.842117 0 0 0 583.30078 336.35352 A 41.842117 41.842117 0 0 0 583.22852 334.35156 A 41.842117 41.842117 0 0 0 583.30078 334.35352 A 41.842117 41.842117 0 0 0 625.14258 292.51172 A 41.842117 41.842117 0 0 0 583.30078 250.66992 A 41.842117 41.842117 0 0 0 583.20117 250.67578 A 41.842117 41.842117 0 0 0 583.30078 248.66992 A 41.842117 41.842117 0 0 0 541.45898 206.82812 A 41.842117 41.842117 0 0 0 499.61523 248.66992 A 41.842117 41.842117 0 0 0 499.67383 250.32227 L 392.85742 250.32227 L 392.85742 160.81445 A 41.842117 41.842117 0 0 0 394.50781 160.87305 A 41.842117 41.842117 0 0 0 436.34961 119.0293 A 41.842117 41.842117 0 0 0 394.50781 77.1875 A 41.842117 41.842117 0 0 0 392.50195 77.287109 A 41.842117 41.842117 0 0 0 392.50781 77.1875 A 41.842117 41.842117 0 0 0 350.66602 35.345703 z M 134.94336 41.607422 L 117.76562 80.646484 L 75.439453 76.033203 L 100.58789 110.46094 L 75.439453 144.88867 L 117.76562 140.27539 L 134.94336 179.31641 L 152.11914 140.27539 L 194.44727 144.88867 L 169.29688 110.46094 L 194.44727 76.033203 L 152.11914 80.646484 L 134.94336 41.607422 z M 566.39258 41.607422 L 549.2168 80.646484 L 506.88867 76.033203 L 532.03906 110.46094 L 506.88867 144.88867 L 549.2168 140.27539 L 566.39258 179.31641 L 583.57031 140.27539 L 625.89648 144.88867 L 600.74805 110.46094 L 625.89648 76.033203 L 583.57031 80.646484 L 566.39258 41.607422 z M 162.94336 412.19727 L 145.76562 451.23633 L 103.43945 446.62305 L 128.58789 481.05078 L 103.43945 515.47852 L 145.76562 510.86523 L 162.94336 549.90625 L 180.11914 510.86523 L 222.44727 515.47852 L 197.29688 481.05078 L 222.44727 446.62305 L 180.11914 451.23633 L 162.94336 412.19727 z M 538.39258 412.19727 L 521.2168 451.23633 L 478.88867 446.62305 L 504.03906 481.05078 L 478.88867 515.47852 L 521.2168 510.86523 L 538.39258 549.90625 L 555.57031 510.86523 L 597.89648 515.47852 L 572.74805 481.05078 L 597.89648 446.62305 L 555.57031 451.23633 L 538.39258 412.19727 z "
       transform="translate(21.732285,32.906498)"
       id="path5109" />
    <path
       style="opacity:1;fill:#ffffff;fill-opacity:1;fill-rule:nonzero;stroke:#000000;stroke-width:8;stroke-linecap:round;stroke-linejoin:round;stroke-miterlimit:4;stroke-dasharray:none;stroke-dashoffset:0;stroke-opacity:1"
       d="M 350.66797 533.24023 A 264.56931 176.59674 0 0 0 111.23633 635.18945 C 171.78077 697.50305 256.87509 736.21774 350.66602 736.26953 C 444.38474 736.15607 529.46641 697.38872 590.02344 635.05859 A 264.56931 176.59674 0 0 0 350.66797 533.24023 z "
       transform="translate(21.732285,32.906498)"
       id="path4815" />
    <path
       style="fill:#0033ff;fill-rule:evenodd;stroke:#000000;stroke-width:8;stroke-linecap:butt;stroke-linejoin:round;stroke-miterlimit:4;stroke-dasharray:none;stroke-opacity:1;fill-opacity:1"
       d="M 185.69727 608.60938 C 172.45016 608.45925 159.44886 612.71826 147.11914 617.70312 C 136.40885 622.03326 125.85904 626.97324 114.82227 630.27344 A 264.56931 176.59674 0 0 0 111.23633 635.18945 C 121.08936 645.3304 131.60242 654.83415 142.6875 663.66016 C 144.16265 663.04456 145.63954 662.43218 147.11914 661.83398 C 160.27084 656.51679 174.18654 652.02757 188.34961 652.83203 C 202.51032 653.63635 215.77457 659.64981 228.76758 665.33789 C 241.76059 671.02597 255.32568 676.5803 269.50781 676.38086 C 283.698 676.1813 297.09722 670.24494 310.05664 664.46094 C 323.01606 658.67694 336.47638 652.83203 350.66797 652.83203 C 364.85957 652.83203 378.31791 658.67694 391.27734 664.46094 C 404.23677 670.24494 417.63598 676.18131 431.82617 676.38086 C 446.0083 676.5803 459.5734 671.02597 472.56641 665.33789 C 485.55943 659.64981 498.82367 653.63635 512.98438 652.83203 C 527.14744 652.02757 541.06314 656.51679 554.21484 661.83398 C 555.64361 662.41163 557.06958 663.0036 558.49414 663.59766 C 569.60688 654.75068 580.14656 645.22466 590.02344 635.05859 A 264.56931 176.59674 0 0 0 586.13281 630.1582 C 575.23347 626.85893 564.80243 621.98365 554.21484 617.70312 C 541.06314 612.38594 527.14745 607.89476 512.98438 608.69922 C 498.82367 609.50354 485.55943 615.517 472.56641 621.20508 C 459.5734 626.89317 446.0083 632.44749 431.82617 632.24805 C 417.63598 632.0485 404.23677 626.11408 391.27734 620.33008 C 378.31791 614.54607 364.85957 608.69922 350.66797 608.69922 C 336.47638 608.69922 323.01606 614.54607 310.05664 620.33008 C 297.09722 626.11408 283.698 632.04849 269.50781 632.24805 C 255.32568 632.44749 241.76059 626.89317 228.76758 621.20508 C 215.77457 615.517 202.51032 609.50354 188.34961 608.69922 C 187.46442 608.64894 186.58041 608.61938 185.69727 608.60938 z "
       transform="translate(21.732285,32.906498)"
       id="path5018" />
    <path
       style="fill:none;fill-rule:evenodd;stroke:#000000;stroke-width:11;stroke-opacity:1"
       inkscape:connector-curvature="0"
       d="M 27.412,38.406498 40.81,455.03091 c 7.415,175.24977 153.9198,314.04607 331.58926,314.14417 177.5097,-0.2149 324.0694,-139.0612 331.5894,-314.14417 l 13.398,-416.624412 -344.9794,0 z"
       id="path10563-0" />
  </g>
</svg>

<svg xmlns="http://www.w3.org/2000/svg" width="748.09" height="791.22" viewBox="0 0 701.334 741.769"><path style="fill:red;fill-opacity:1;fill-rule:evenodd;stroke:none;stroke-width:11;stroke-opacity:1" d="M27.412 38.406 40.81 455.031c7.415 175.25 153.92 314.046 331.59 314.144 177.509-.215 324.069-139.061 331.589-314.144l13.398-416.625h-344.98z" transform="translate(-21.732 -32.906)"/><path style="opacity:1;fill:#fff;fill-opacity:1;fill-rule:nonzero;stroke:#000;stroke-width:8;stroke-linecap:round;stroke-linejoin:round;stroke-miterlimit:4;stroke-dasharray:none;stroke-dashoffset:0;stroke-opacity:1" d="M350.666 35.346a41.842 41.842 0 0 0-41.842 41.842 41.842 41.842 0 0 0 .002.072 41.842 41.842 0 0 0-2.002-.073 41.842 41.842 0 0 0-41.842 41.842 41.842 41.842 0 0 0 41.842 41.844 41.842 41.842 0 0 0 1.65-.082v89.531H201.66a41.842 41.842 0 0 0 .059-1.652 41.842 41.842 0 0 0-41.844-41.842 41.842 41.842 0 0 0-41.842 41.842 41.842 41.842 0 0 0 .1 2.006 41.842 41.842 0 0 0-.1-.006 41.842 41.842 0 0 0-41.842 41.842 41.842 41.842 0 0 0 41.842 41.842 41.842 41.842 0 0 0 .072-.002 41.842 41.842 0 0 0-.072 2.002 41.842 41.842 0 0 0 41.842 41.841 41.842 41.842 0 0 0 41.844-41.841 41.842 41.842 0 0 0-.082-1.65h106.84v221.614h84.38V334.703h106.84a41.842 41.842 0 0 0-.082 1.65 41.842 41.842 0 0 0 41.844 41.842 41.842 41.842 0 0 0 41.842-41.841 41.842 41.842 0 0 0-.072-2.002 41.842 41.842 0 0 0 .072.002 41.842 41.842 0 0 0 41.842-41.842A41.842 41.842 0 0 0 583.3 250.67a41.842 41.842 0 0 0-.1.006 41.842 41.842 0 0 0 .1-2.006 41.842 41.842 0 0 0-41.842-41.842 41.842 41.842 0 0 0-41.844 41.842 41.842 41.842 0 0 0 .059 1.652H392.857v-89.508a41.842 41.842 0 0 0 1.65.06 41.842 41.842 0 0 0 41.843-41.845 41.842 41.842 0 0 0-41.842-41.841 41.842 41.842 0 0 0-2.006.1 41.842 41.842 0 0 0 .006-.1 41.842 41.842 0 0 0-41.842-41.842zm-215.723 6.261-17.177 39.04-42.327-4.614 25.149 34.428-25.149 34.428 42.327-4.614 17.177 39.041 17.176-39.04 42.328 4.613-25.15-34.428 25.15-34.428-42.328 4.613-17.176-39.039zm431.45 0-17.176 39.04-42.328-4.614 25.15 34.428-25.15 34.428 42.328-4.614 17.176 39.041 17.177-39.04 42.326 4.613-25.148-34.428 25.148-34.428-42.326 4.613-17.177-39.039zm-403.45 370.59-17.177 39.04-42.327-4.614 25.149 34.428-25.149 34.428 42.327-4.614 17.177 39.041 17.176-39.04 42.328 4.613-25.15-34.428 25.15-34.428-42.328 4.613-17.176-39.039zm375.45 0-17.176 39.04-42.328-4.614 25.15 34.428-25.15 34.428 42.328-4.614 17.176 39.041 17.177-39.04 42.326 4.613-25.148-34.428 25.148-34.428-42.326 4.613-17.177-39.039z"/><path style="opacity:1;fill:#fff;fill-opacity:1;fill-rule:nonzero;stroke:#000;stroke-width:8;stroke-linecap:round;stroke-linejoin:round;stroke-miterlimit:4;stroke-dasharray:none;stroke-dashoffset:0;stroke-opacity:1" d="M350.668 533.24a264.57 176.597 0 0 0-239.432 101.95c60.545 62.313 145.64 101.028 239.43 101.08 93.719-.114 178.8-38.881 239.357-101.211A264.57 176.597 0 0 0 350.668 533.24z"/><path style="fill:#03f;fill-rule:evenodd;stroke:#000;stroke-width:8;stroke-linecap:butt;stroke-linejoin:round;stroke-miterlimit:4;stroke-dasharray:none;stroke-opacity:1;fill-opacity:1" d="M185.697 608.61c-13.247-.15-26.248 4.108-38.578 9.093-10.71 4.33-21.26 9.27-32.297 12.57a264.57 176.597 0 0 0-3.586 4.916 333.315 333.315 0 0 0 31.451 28.471 430.645 430.645 0 0 1 4.432-1.826c13.152-5.317 27.068-9.806 41.23-9.002 14.161.804 27.426 6.818 40.419 12.506 12.993 5.688 26.558 11.242 40.74 11.043 14.19-.2 27.59-6.136 40.549-11.92 12.96-5.784 26.42-11.629 40.611-11.629 14.192 0 27.65 5.845 40.61 11.629 12.959 5.784 26.358 11.72 40.548 11.92 14.182.2 27.747-5.355 40.74-11.043 12.993-5.688 26.258-11.702 40.418-12.506 14.163-.804 28.08 3.685 41.23 9.002 1.43.578 2.856 1.17 4.28 1.764a333.905 333.905 0 0 0 31.53-28.54 264.57 176.597 0 0 0-3.891-4.9c-10.9-3.3-21.33-8.174-31.918-12.455-13.152-5.317-27.068-9.808-41.23-9.004-14.161.805-27.426 6.818-40.419 12.506-12.993 5.688-26.558 11.242-40.74 11.043-14.19-.2-27.59-6.134-40.549-11.918-12.96-5.784-26.417-11.63-40.609-11.63s-27.652 5.846-40.611 11.63c-12.96 5.784-26.359 11.718-40.55 11.918-14.181.2-27.746-5.355-40.74-11.043-12.992-5.688-26.257-11.701-40.417-12.506-.886-.05-1.77-.08-2.653-.09z"/><path style="fill:none;fill-rule:evenodd;stroke:#000;stroke-width:11;stroke-opacity:1" d="M27.412 38.406 40.81 455.031c7.415 175.25 153.92 314.046 331.59 314.144 177.509-.215 324.069-139.061 331.589-314.144l13.398-416.625h-344.98z" transform="translate(-21.732 -32.906)"/></svg>
